X: 1
T: Joe Bane's
M: 2/4
L: 1/8
R: polka
K: Ador
E|:A>A GE|cd e>d|(3cBA BG|AG (3EFG|
A>A GE|cd e>d|(3cBA BG|[1 A2 AE:|[2 A2 A2||
|:ea e>d|ea e>d|^cd ef|g2 f>g|
ea e>d|ea e>d|(3cBA BG|A2 A2:|
